X:461
T: EIN SCHNEIDER UND EIN ZIEGENBOCK
N: E1716
O: Europa, Mitteleuropa, Deutschland
R: Spott - Lied auf die Leineweber
M: 4/4
L: 1/8
K: G
G2 | G2G2d2d2 | G2F2G2
G2 | A2B2c2A2 | B2B2A2
A2 | G2A2B2B2 | E4A4 |
G2FED2A2 | A2E2A2
G2 | A4B4 | A2G2A2G2 | d6z2 |
B2ABA2EF | G6

@@@ Tune index: 5145
